src/assets/icons/calendar-events,simple,columns.svg

<svg width="48" height="48" viewBox="0 0 48 48" fill="none" xmlns="http://www.w3.org/2000/svg">
<rect opacity="0.2" x="5" y="5" width="38" height="38" rx="4" fill="black"/>
<path d="M5 13C5 9.22876 5 7.34315 6.17157 6.17157C7.34315 5 9.22876 5 13 5H35C38.7712 5 40.6569 5 41.8284 6.17157C43 7.34315 43 9.22876 43 13V15H5V13Z" fill="black"/>
<path opacity="0.2" fill-rule="evenodd" clip-rule="evenodd" d="M5 15V35C5 38.7712 5 40.6569 6.17157 41.8284C7.23467 42.8915 8.8857 42.99 12 42.9991L12 15H5ZM26 43H19L19 15H26L26 43ZM40 42.748C38.8423 43 37.2596 43 35 43H33L33 15H40V42.748Z" fill="black"/>
</svg>

<svg xmlns="http://www.w3.org/2000/svg" width="48" height="48" fill="none" viewBox="0 0 48 48">
  <rect width="38" height="38" x="5" y="5" fill="#000" opacity=".2" rx="4"/>
  <path fill="#000" d="M5 13c0-3.771 0-5.657 1.172-6.828C7.343 5 9.229 5 13 5h22c3.771 0 5.657 0 6.828 1.172C43 7.343 43 9.229 43 13v2H5v-2z"/>
  <path fill="#000" fill-rule="evenodd" d="M5 15v20c0 3.771 0 5.657 1.172 6.828C7.235 42.891 8.886 42.99 12 43V15H5zm21 28h-7V15h7v28zm14-.252C38.842 43 37.26 43 35 43h-2V15h7v27.748z" clip-rule="evenodd" opacity=".2"/>
</svg>
